X: 6
T: Cam Ye O'er Frae France
R: three-two
M: 3/2
L: 1/8
K: Gdor
|: B2G2- G2D2 G4 | B2G2- G2B2 ABcA |\
B2G2- G2D2 G3B | A2F2 F2c2 ABcA :|
|: G2g2 g2^f2 g4 | d2g2 g3a b2g2 |\
d2g2 agfe f4 | A2F2 F2c2 ABcA :|
